X: 5389
T: Bucks Of Tipperary
R: jig
M: 6/8
K: Dmajor
A|dfd B2B|AGF A2B|ded def|g3 f2e|
dfd B2d|AGF A2B|d2g fge|d3 d2:|
A|:d2g faf|gbg faf|d2d faf|g3 f2e|
dfg aff|bgg agf|(edB) (BAB)|g3 f2e:|

